X:12
T:Dorsetshire March,The JClw.12
M:4/4
L:1/8
Q:1/4=120
S:J.Clews MS,Stoke-upon-Tern,Shrops.1832
N:A minor key version of this popular tune. NeilB
A:N. Shropshire
Z:Neil Brookes 2006
K:F
D2|F2D>FA2F>A|d2A>df2 d>f|a2b>a g2 f3/2e/4f/4|e2e>ee2D2|!
F2D>FA2F>A|B>cd>e d>c B>A|B>cd>g f2e2|d2d>dd2:|!
|:A2|d2e2f>d Bc|dB AF dB AF|ED FA d>c B>A|G2 E>EE2d2|!
F2D>F A2 F>A|B2 g>e d>c B>A|Bbag f2e2|d2d>dd2:|

